packages/tokens/icons/moneyCircleArrow/size32Px.svg

<svg viewBox="0 0 32 32" fill="none" xmlns="http://www.w3.org/2000/svg" width="1em" height="1em"><path d="M7.27853 9.40061C3.67138 13.7223 3.89652 20.1607 7.95392 24.2181C12.0113 28.2756 18.4498 28.5007 22.7715 24.8935" stroke="currentColor" stroke-linecap="round"/><path d="M7.77191 11.8438V8.84375H4.77191" stroke="currentColor" stroke-linecap="round" stroke-linejoin="round"/><path d="M24.7215 22.6009C28.3286 18.2792 28.1035 11.8407 24.0461 7.78332C19.9887 3.72591 13.5502 3.50078 9.22854 7.10792" stroke="currentColor" stroke-linecap="round"/><path d="M24.2281 20.1577V23.1577H27.2281" stroke="currentColor" stroke-linecap="round" stroke-linejoin="round"/><path d="M19.5 13.9771V13.7708V13.7708C19.5 12.3786 18.3714 11.25 16.9792 11.25L14.2917 11.2501C13.026 11.2501 12 12.2761 12 13.5417V13.5417C12 14.8074 13.026 15.8334 14.2917 15.8334H17.2083C18.474 15.8334 19.5 16.8594 19.5 18.1251V18.1251C19.5 19.3907 18.474 20.4167 17.2083 20.4167H14.5208C13.1286 20.4167 12 19.2881 12 17.8959V17.8959V17.4834" stroke="currentColor" stroke-linecap="round"/><path d="M15.75 10V21.6667" stroke="currentColor" stroke-linecap="round"/></svg>

<svg xmlns="http://www.w3.org/2000/svg" fill="none" viewBox="0 0 32 32" width="1em" height="1em"><path stroke="currentColor" stroke-linecap="round" d="M7.279 9.4c-3.608 4.322-3.382 10.76.675 14.818s10.496 4.283 14.817.675"/><path stroke="currentColor" stroke-linecap="round" stroke-linejoin="round" d="M7.772 11.844v-3h-3"/><path stroke="currentColor" stroke-linecap="round" d="M24.721 22.6c3.608-4.32 3.383-10.76-.675-14.817C19.99 3.726 13.55 3.501 9.23 7.108"/><path stroke="currentColor" stroke-linecap="round" stroke-linejoin="round" d="M24.228 20.158v3h3"/><path stroke="currentColor" stroke-linecap="round" d="M19.5 13.977v-.206 0a2.52 2.52 0 0 0-2.52-2.521h-2.688A2.292 2.292 0 0 0 12 13.542v0a2.292 2.292 0 0 0 2.292 2.291h2.916a2.292 2.292 0 0 1 2.292 2.292v0a2.292 2.292 0 0 1-2.292 2.292h-2.687A2.52 2.52 0 0 1 12 17.896v0-.413M15.75 10v11.667"/></svg>
